!!!!SEGMENT: pl-kk--kk-i-6--002_anonim--benedicta-et-venerabilis.krn
!!!cenid: 16xx:957
!!!COM: Anonim
!!!COM-rism: pe30004985
!!!CDT:
!!!CNT:
!!!OTL: Benedicta et venerabilis
!!!PDT:
!!!AGN: Sacred
!!!SMS-siglum: PL-Kk
!!!SMS-shelfmark: Kk.I.6
!!!NIFC-rismID: 1001135574
!!!URL-scan: http://repozytorium.nifc.pl/skany/pl-kk-nut--i-6
!!!ONB-nifc: UWAGA: C (skan 0003-0004, s. 2-4), T (skan 0099-0101, s. 3-6), B (skan 0211-0212, s. 3-5) Następny utwór: Ave Maria
!!!SMS-variant:
!!!SMS-altvar:
**kern	**text	**kern	**text	**kern	**text
*part3	*part3	*part2	*part2	*part1	*part1
*staff3	*staff3	*staff2	*staff2	*staff1	*staff1
*I"Baſsus.	*	*I"Tenor.	*	*I"Cantus.	*
*I'B	*	*I'T	*	*I'S	*
*clefF4	*	*clefC4	*	*clefC4	*
*k[b-]	*	*k[b-]	*	*k[b-]	*
*M2/1	*	*M2/1	*	*M2/1	*
*met(C|)	*	*met(C|)	*	*met(C|)	*
=1-	=1-	=1-	=1-	=1-	=1-
*lig	*	*	*	*	*
*	*	*	*	*lig	*
!LO:TX:a:t=Graduale.	!	!LO:TX:a:t=Gradual	!	!LO:TX:a:t=Graduale.	!
1G	Be-	0d	Be-	1B-	Be-
1D	.	.	.	1A	.
*Xlig	*	*	*	*Xlig	*
=2-	=2-	=2-	=2-	=2-	=2-
*	*	*	*	*lig	*
1G	.	1d	ne-	1B-	-ne-
2C/	-ne-	2c\	-di-	1c	.
1F\	-di-	1A\	-cta	.	.
*	*	*	*	*Xlig	*
=3-	=3-	=3-	=3-	=3-	=3-
.	.	.	.	1c	-di-
4E\	.	4G/	.	.	.
4D/	.	4F/	.	.	.
2C/	.	2G/	.	1c	-cta
2F\	.	2A/	.	.	.
=4-	=4-	=4-	=4-	=4-	=4-
0G	.	2.B-\	.	0B-	.
.	.	4c\	.	.	.
.	.	2d\	.	.	.
.	.	2B-\	.	.	.
=5-	=5-	=5-	=5-	=5-	=5-
*lig	*	*	*	*	*
1C	-cta	1c	.	1G	.
*	*	*	*	*lig	*
1G	.	1d	.	1B-	.
*Xlig	*	*	*	*	*
=6-	=6-	=6-	=6-	=6-	=6-
!	!	!LO:TX:t=P:problem:cezura na 2. linii	!	!	!
1C	et	1c,	.	1G	.
*	*	*	*	*Xlig	*
!	!	!LO:SIC:v:custos c	!	!	!
1BB-	Ve-	1F	et	1B-	et
!	!	!LO:LB:g=original	!	!	!
=7-	=7-	=7-	=7-	=7-	=7-
!LO:SIC:v:custos BB	!	!	!	!	!
1C	-ne-	1c	Ve-	1G	Ve-
!LO:LB:g=original	!	!	!	!	!
*	*	*	*	*lig	*
4BB-/	-ra-	1F	-ne-	1B-	.
4C/	.	.	.	.	.
4D/	.	.	.	.	.
4E\	.	.	.	.	.
=8-	=8-	=8-	=8-	=8-	=8-
1F	.	2.f\	-ra-	1A	.
.	.	4e\	.	.	.
*lig	*	*	*	*Xlig	*
*	*	*	*	*lig	*
1G	.	2d\	.	1B-	.
.	.	4c\	-bi-	.	.
.	.	4B-\	.	.	.
=9-	=9-	=9-	=9-	=9-	=9-
!	!	!	!	!LO:SIC:v:custos c	!
1F	.	1A	-lis	1c	.
*Xlig	*	*	*	*Xlig	*
!	!	!	!	!LO:LB:g=original	!
*lig	*	*	*	*lig	*
1F	-bi-	1A	es	1c	ra-
=10-	=10-	=10-	=10-	=10-	=10-
*col	*	*	*ij	*	*
2.G\	.	2r	.	1B-	.
.	.	2B-\	et	.	.
*Xlig	*	*	*	*Xlig	*
4F\	.	.	.	.	.
*Xcol	*	*	*	*lig	*
2E\	-lis	1c	Ve-	1G	-bi-
2C/	es	.	.	.	.
=11-	=11-	=11-	=11-	=11-	=11-
*lig	*	*	*	*	*
1G	.	2d\	-ne-	1B-	.
.	.	2e\	-ra-	.	.
*	*	*	*	*Xlig	*
1F	.	2.c\	-bi-	1A	-lis
.	.	4B-\	.	.	.
*Xlig	*	*	*	*	*
=12-	=12-	=12-	=12-	=12-	=12-
*lig	*	*	*	*lig	*
1F	.	2A/	.	1c	.
.	.	2F/	-lis	.	.
!	!	!LO:SIC:v:custos A	!	!LO:TX:t=P:problem:cezura na 2. linii	!
1BB-	.	0F	es	1B-,	.
*Xlig	*	*	*Xij	*Xlig	*
=13-	=13-	=13-	=13-	=13-	=13-
!	!	!	!	!LO:TX:t=P:problem:cezura na 2. linii	!
1BB-	.	.	.	1B-,	es
!	!	!LO:LB:g=original	!	!	!
1.F	Vir-	2r	.	1A	Vir-
.	.	1A\	Vir-	.	.
=14-	=14-	=14-	=14-	=14-	=14-
!	!	!	!	!LO:TX:t=P:problem:cezura na 3. linii	!
.	.	.	.	1c,	-go
2E\	.	2G/	-go	.	.
*	*	*	*	*lig	*
2D/	-go	2A/	.	1d	Ma-
!LO:SIC:v:custos D	!	!	!	!	!
2G\	.	2B-\	Ma-	.	.
!LO:LB:g=original	!	!	!	!	!
=15-	=15-	=15-	=15-	=15-	=15-
4D/	Ma-	2.A/	-ri-	1f	.
4E\	.	.	.	.	.
4F\	.	.	.	.	.
4G\	.	4B-\	.	.	.
*	*	*	*	*Xlig	*
1A	.	1c	-a	1e	-ri-
=16-	=16-	=16-	=16-	=16-	=16-
*	*	*	*	*lig	*
1F	.	1A	.	1f	.
2E\	.	2G/	.	1g	.
2C/	.	2c\	.	.	.
*	*	*	*	*Xlig	*
=17-	=17-	=17-	=17-	=17-	=17-
*	*	*	*	*lig	*
1D	-ri-	2A/	.	1f	.
.	.	2F/	.	.	.
!LO:TX:t=P:problem:cezura na 1. linii	!	!	!	!	!
1C,	-a	2.G/	.	1e	.
.	.	4A/	.	.	.
*	*	*	*	*Xlig	*
=18-	=18-	=18-	=18-	=18-	=18-
*	*	*	*	*lig	*
1.G	Vir-	1.B-	.	1d	.
.	.	.	.	1c	.
4F\	.	4A/	.	.	.
4E\	.	4G/	.	.	.
*	*	*	*	*Xlig	*
=19-	=19-	=19-	=19-	=19-	=19-
*	*	*	*	*lig	*
1D	-go	2A/	.	1d	.
.	.	1d	.	.	.
*lig	*	*	*	*	*
!	!	!	!	!LO:SIC:v:custos c	!
1G	Ma-	.	.	1B-	.
!	!	!LO:SIC:v:custos c	!	!	!
.	.	2d\	.	.	.
*	*	*	*	*Xlig	*
!	!	!LO:PB:g=original	!	!LO:LB:g=original	!
=20-	=20-	=20-	=20-	=20-	=20-
*	*	*	*	*lig	*
1A	.	2c\	.	1c	.
.	.	2A/	.	.	.
*Xlig	*	*	*	*	*
1G	-ri-	2B-\	.	1d	.
.	.	2G/	.	.	.
*	*	*	*	*Xlig	*
=21-	=21-	=21-	=21-	=21-	=21-
!	!	!	!	!LO:TX:t=P:problem:cezura na 2. polu	!
1C	-a	1G	.	1c,	-a
!LO:SIC:v:custos B	!	!	!	!	!
1C	quae	1c	.	1G	quae
!LO:LB:g=original	!	!	!	!	!
=22-	=22-	=22-	=22-	=22-	=22-
*	*	*	*	*lig	*
2.BB-/	ſi-	1F	.	1B-	.
4C/	.	.	.	.	.
!	!	!	!	!LO:TX:t=P:problem:cezura na 1. polu	!
4D/	.	2.f\	quae	1A,	.
4E\	.	.	.	.	.
2F\	-ne	.	.	.	.
.	.	4e\	.	.	.
*	*	*	*	*Xlig	*
=23-	=23-	=23-	=23-	=23-	=23-
*	*	*	*	*lig	*
1G	ta-	2d\	.	1B-	ſi-
.	.	2G/	.	.	.
2F\	.	2A/	.	1c	.
4E\	.	4G/	.	.	.
4D/	.	4F/	.	.	.
*	*	*	*	*Xlig	*
=24-	=24-	=24-	=24-	=24-	=24-
*	*	*	*	*lig	*
2C/	.	2G/	.	1c	-ne
2.F\	.	2.A/	ſi-	.	.
.	.	.	.	1A	.
4E\	.	4G/	.	.	.
4D/	.	4F/	.	.	.
4C/	.	4E/	.	.	.
*	*	*	*	*Xlig	*
=25-	=25-	=25-	=25-	=25-	=25-
!	!	!LO:SIC:v:custos E	!	!	!
*	*	*	*	*lig	*
1BB-	.	1D	-ne	1B-	.
!	!	!LO:LB:g=original	!	!	!
1C	.	2E/	ta-	1G	.
.	.	2C/	.	.	.
*	*	*	*	*Xlig	*
=26-	=26-	=26-	=26-	=26-	=26-
*	*	*	*	*lig	*
1D	-ctu	2F/	.	1F	ta-
.	.	2D/	-ctu	.	.
1d	pu-	2rE	.	1G	.
.	.	2.G/	pu-	.	.
*	*	*	*	*Xlig	*
=27-	=27-	=27-	=27-	=27-	=27-
1d	-do-	.	.	1G	-ctu
.	.	4A/	.	.	.
.	.	4B-\	.	.	.
.	.	4c\	.	.	.
!LO:SIC:v:custos F	!	!	!	!	!
1G	-ris	2d\	.	1B-	pu-
.	.	4c\	.	.	.
.	.	4B-\	.	.	.
!LO:PB:g=original	!	!	!	!	!
=28-	=28-	=28-	=28-	=28-	=28-
*	*	*	*	*lig	*
2F\	ſi-	2A/	.	1c	-do-
2A\	-ne	2c\	-do-	.	.
2G\	ta-	2B-\	.	1d	.
4F\	.	4A/	.	.	.
4E\	.	4G/	.	.	.
*	*	*	*	*Xlig	*
=29-	=29-	=29-	=29-	=29-	=29-
!	!	!	!	!LO:SIC:v:custos e	!
1D	.	2A/	.	1d	-ris
!	!	!LO:SIC:v:custos c	!	!	!
.	.	2B-\	.	.	.
!	!	!LO:LB:g=original	!	!LO:PB:g=original	!
*lig	*	*	*	*lig	*
1C	.	2c\	.	1e	.
.	.	4G/	.	.	.
.	.	4A/	.	.	.
=30-	=30-	=30-	=30-	=30-	=30-
1G	.	2B-\	.	1d	.
.	.	2G/	.	.	.
*Xlig	*	*	*	*Xlig	*
*	*	*	*	*lig	*
2C/	-ctu	2G/	.	1c	.
2.F\	.	2.A/	.	.	.
=31-	=31-	=31-	=31-	=31-	=31-
.	.	.	.	1A	.
4G\	pu-	4B-\	.	.	.
2A\	.	2c\	.	.	.
*	*	*	*	*Xlig	*
*	*	*	*	*lig	*
1G	-do-	2B-\	.	1B-	.
.	.	2G/	.	.	.
=32-	=32-	=32-	=32-	=32-	=32-
!LO:TX:t=P:problem:cezura na 1. linii	!	!	!	!LO:TX:t=P:problem:cezura na 2. polu	!
1C,	-ris	0G	-ris	1c,	.
*	*	*	*	*Xlig	*
1C	in-	.	.	1c	in
=33-	=33-	=33-	=33-	=33-	=33-
!LO:SIC:v:l:s=ven	!	!	!	!	!
*	*	*	*	*lig	*
1.G	-uen-	1.B-	in-	1d	uen-
.	.	.	.	1B-	.
4F\	.	4A/	.	.	.
!LO:SIC:v:custos D	!	!	!	!	!
4E\	.	4G/	.	.	.
*	*	*	*	*Xlig	*
!LO:LB:g=original	!	!	!	!	!
=34-	=34-	=34-	=34-	=34-	=34-
*	*	*	*	*lig	*
1D	.	1A	.	1d	.
!	!	!LO:SIC:v:l:s=v	!	!	!
2E\	.	2G/	-uen-	1c	.
2.F\	-ta	2.A/	-ta	.	.
*	*	*	*	*Xlig	*
=35-	=35-	=35-	=35-	=35-	=35-
.	.	.	.	1A	.
4E\	.	4G/	.	.	.
4D/	.	4F/	.	.	.
!	!	!LO:SIC:v:custos D	!	!	!
4C/	.	4E/	.	.	.
!	!	!LO:LB:g=original	!	!	!
*	*	*	*	*lig	*
1BB-	.	1D	es	1B-	.
=36-	=36-	=36-	=36-	=36-	=36-
1C	.	2E/	Ma-	1G	.
.	.	2C/	.	.	.
*	*	*	*	*Xlig	*
*	*	*	*	*lig	*
1D	es	2F/	.	1F	-ta
.	.	2D/	-ter	.	.
=37-	=37-	=37-	=37-	=37-	=37-
1d	Ma-	2rE	.	1G	.
.	.	2.G/	Ma-	.	.
*	*	*	*	*Xlig	*
1d	ter	.	.	1G	es
.	.	4A/	.	.	.
.	.	4B-\	.	.	.
.	.	4c\	.	.	.
=38-	=38-	=38-	=38-	=38-	=38-
*	*	*	*	*lig	*
1B-	.	2d\	.	1G	Ma-
.	.	2G/	.	.	.
!	!	!	!	!LO:SIC:v:custos B-	!
1c	Sal-	2A/	.	1F	.
.	.	2c\	.	.	.
*	*	*	*	*Xlig	*
!	!	!	!	!LO:LB:g=original	!
=39-	=39-	=39-	=39-	=39-	=39-
*	*	*	*	*lig	*
2B-\	-ua-	1d	.	1B-	.
2G\	-to-	.	.	.	.
1A	.	2c\	.	1c	.
.	.	2A/	.	.	.
*	*	*	*	*Xlig	*
=40-	=40-	=40-	=40-	=40-	=40-
2G\	.	2B-\	.	1d	.
4F\	.	4A/	.	.	.
!LO:SIC:v:custos D	!	!	!	!	!
4E\	.	4G/	.	.	.
!LO:LB:g=original	!	!	!	!	!
*	*	*	*	*lig	*
2D/	.	2A/	.	1d	-ter
!	!	!LO:SIC:v:custos c	!	!	!
2G\	.	2B-\	-ter	.	.
!	!	!LO:LB:g=original	!	!	!
=41-	=41-	=41-	=41-	=41-	=41-
1C	-ris	2c\	ſal-	1e	.
.	.	4G/	-ua-	.	.
.	.	4A/	.	.	.
*	*	*	*	*Xlig	*
1G	Ma-	2B-\	.	1d	.
.	.	1G/	.	.	.
=42-	=42-	=42-	=42-	=42-	=42-
*	*	*	*	*lig	*
2C/	-ter	.	.	1c	.
2.F\	Sal-	2.A/	.	.	.
.	.	.	.	1A	.
4E\	.	4G/	.	.	.
4D/	.	4F/	.	.	.
4C/	.	4E/	.	.	.
*	*	*	*	*Xlig	*
=43-	=43-	=43-	=43-	=43-	=43-
*	*	*	*	*lig	*
1D	.	1F	.	1B-	.
1C	-ua-	1G	.	1c	.
*	*	*	*	*Xlig	*
=44-	=44-	=44-	=44-	=44-	=44-
!	!	!	!	!LO:TX:t=P:problem:cezura na 3. linii	!
1C	-to-	1G	.	1c,	.
1G	-ris	2.B-\	.	1G	Sal-
.	.	4A/	.	.	.
=45-	=45-	=45-	=45-	=45-	=45-
*lig	*ij	*	*	*	*
1G	Ma-	2G/	.	1B-	-ua-
.	.	2B-\	.	.	.
1F	.	2c\	.	1A	-to-
.	.	1d\	.	.	.
*Xlig	*	*	*	*	*
=46-	=46-	=46-	=46-	=46-	=46-
*lig	*	*	*	*lig	*
1G	-ter	.	.	1B-	.
*	*Xij	*	*	*	*
.	.	2B-\	.	.	.
!	!	!LO:SIC:v:custos A	!	!	!
1C	.	1c	.	1G	.
*Xlig	*	*	*	*Xlig	*
!	!	!LO:LB:g=original	!	!	!
=47-	=47-	=47-	=47-	=47-	=47-
1D	.	1A	.	1F	.
!LO:SIC:v:custos G	!	!	!	!LO:SIC:v:custos d	!
0d	Sal-	0B-	-to-	0G	.
=48-	=48-	=48-	=48-	=48-	=48-
.	.	.	.	.	.
!LO:LB:g=original	!	!	!	!LO:LB:g=original	!
*	*	*	*	*lig	*
1G	-ua-	1B-	-ris	1d	.
=49-	=49-	=49-	=49-	=49-	=49-
1c	-to-	2r	.	1e	.
*	*	*	*ij	*	*
.	.	2c\	ſal-	.	.
*	*	*	*	*Xlig	*
1G	.	2d\	-ua-	1d	.
.	.	2G/	.	.	.
=50-	=50-	=50-	=50-	=50-	=50-
*	*	*	*	*lig	*
2C/	-ris	2G/	.	1c	.
*	*ij	*	*	*	*
1F	Sal-	1A	.	.	.
.	.	.	.	1A	.
4E\	.	4G/	.	.	.
4D/	.	4F/	.	.	.
*	*	*	*	*Xlig	*
=51-	=51-	=51-	=51-	=51-	=51-
*	*	*	*	*lig	*
1C	.	2.G/	.	1c	.
.	.	4A/	.	.	.
1G	.	2B-\	.	1d	.
.	.	1G/	.	.	.
*	*	*	*	*Xlig	*
=52-	=52-	=52-	=52-	=52-	=52-
*	*	*	*	*lig	*
2C/	.	.	.	1c	.
1F	.	1A	.	.	.
.	.	.	.	1A	.
2D/	.	2F/	.	.	.
*	*	*	*	*Xlig	*
=53-	=53-	=53-	=53-	=53-	=53-
1G	.	2B-\	.	1B-	.
.	.	2G/	.	.	.
*	*	*	*	*lig	*
1F	-ua-	1A	.	1c	.
=54-	=54-	=54-	=54-	=54-	=54-
0G	-to-	1.B-	.	1B-	.
*	*	*	*	*Xlig	*
.	.	.	.	1B-	.
.	.	2G/	-to-	.	.
=55-	=55-	=55-	=55-	=55-	=55-
0D;;	-ris	0d;;	-ris	0Al;;	-ris.
*	*Xij	*	*Xij	*	*
!LO:LB:g=original	!	!LO:PB:g=original	!	!LO:LB:g=original	!
=56||	=56||	=56||	=56||	=56||	=56||
*M2/1	*	*M2/1	*	*M2/1	*
*met(C|)	*	*met(C|)	*	*met(C|)	*
*lig	*	*lig	*	*	*
1D	Vir-	1A	Vir-	0d	Vir-
1G	.	1B-	.	.	.
*Xlig	*	*Xlig	*	*	*
=57-	=57-	=57-	=57-	=57-	=57-
2F\	-go	2c\	-go	1f	-go
2.D/	.	2d\	.	.	.
*	*	*	*	*lig	*
.	.	2.A/	.	1d	.
4E\	.	.	.	.	.
4F\	.	.	.	.	.
4G\	.	4B-\	.	.	.
=58-	=58-	=58-	=58-	=58-	=58-
1A	.	1c	.	1c	.
*	*	*	*	*Xlig	*
*	*	*	*	*lig	*
0D	.	1A	.	1d	.
=59-	=59-	=59-	=59-	=59-	=59-
.	.	0d	.	1A	.
*	*	*	*	*Xlig	*
1G	.	.	.	1B-	.
=60-	=60-	=60-	=60-	=60-	=60-
*	*	*	*	*lig	*
1C	.	1c	.	1c	.
1F	.	2.c\	.	1A	.
.	.	4B-\	.	.	.
*	*	*	*	*Xlig	*
=61-	=61-	=61-	=61-	=61-	=61-
*	*	*	*	*lig	*
1F	.	2.A/	.	1c	.
.	.	4G/	.	.	.
2D/	.	2F/	.	1f	.
1F\	.	1A\	.	.	.
*	*	*	*	*Xlig	*
=62-	=62-	=62-	=62-	=62-	=62-
*	*	*	*	*lig	*
.	.	.	.	1d	.
2G\	.	2B-\	.	.	.
1A	.	2c\	.	1c	.
.	.	1A\	.	.	.
*	*	*	*	*Xlig	*
=63-	=63-	=63-	=63-	=63-	=63-
!LO:SIC:v:custos G	!	!	!	!	!
*	*	*	*	*lig	*
1D	.	.	.	1d	.
!	!	!LO:SIC:v:custos d	!	!	!
.	.	1.d	.	.	.
!LO:LB:g=original	!	!	!	!	!
1G	.	.	.	1B-	.
*	*	*	*	*Xlig	*
!	!	!LO:LB:g=original	!	!	!
=64-	=64-	=64-	=64-	=64-	=64-
*	*	*	*	*lig	*
!	!	!LO:TX:b:t=+	!	!	!
1D	.	00d	.	1A	.
!LO:N:vis=2r	!	!	!	!LO:SIC:v:custos B-	!
1r	.	.	.	1G	.
*	*	*	*	*Xlig	*
!	!	!	!	!LO:LB:g=original	!
=65-	=65-	=65-	=65-	=65-	=65-
*lig	*	*	*	*	*
1G	De-	.	.	1B-	.
*	*	*	*	*lig	*
1D	.	.	.	1A	.
=66-	=66-	=66-	=66-	=66-	=66-
1G	.	1.d	.	1G	.
*Xlig	*	*	*	*Xlig	*
*	*	*	*	*lig	*
1ryy	.	.	.	1B-	.
.	.	4c\	.	.	.
.	.	4B-\	.	.	.
=67-	=67-	=67-	=67-	=67-	=67-
2F\	-i	2A/	.	1c	.
2E\	.	1G	.	.	.
*	*	*	*	*Xlig	*
*	*	*	*	*lig	*
1D	.	.	.	1d	.
.	.	2F/	.	.	.
=68-	=68-	=68-	=68-	=68-	=68-
1C	.	2G/	.	1e	.
.	.	2g\	.	.	.
*lig	*	*	*	*Xlig	*
*	*	*	*	*lig	*
1F	.	2.f\	De-	1c	De-
.	.	4e\	.	.	.
=69-	=69-	=69-	=69-	=69-	=69-
1G	.	2d\	.	1B-	.
.	.	2G/	.	.	.
*Xlig	*	*	*	*Xlig	*
*	*	*	*	*lig	*
1F	.	1A	.	1c	.
=70-	=70-	=70-	=70-	=70-	=70-
4BB-/	.	2.F/	.	1d	.
4C/	.	.	.	.	.
4D/	.	.	.	.	.
4E\	.	4G/	.	.	.
*lig	*	*	*	*Xlig	*
*	*	*	*	*lig	*
1F	.	1A	.	1c	.
=71-	=71-	=71-	=71-	=71-	=71-
1G	.	4G/	.	1B-	.
.	.	4A/	.	.	.
.	.	4B-\	.	.	.
!	!	!LO:SIC:v:custos A	!	!	!
.	.	4G/	.	.	.
*Xlig	*	*	*	*Xlig	*
!	!	!LO:LB:g=original	!	!	!
*	*	*	*	*lig	*
2F\	.	2A/	.	1c	.
2A\	.	2F/	.	.	.
=72-	=72-	=72-	=72-	=72-	=72-
!LO:SIC:v:custos C	!	!	!	!	!
1G	.	1B-	.	1d	.
*	*	*	*	*Xlig	*
!LO:PB:g=original	!	!	!	!LO:TX:t=P:problem:cezura na 4. linii	!
1C	.	1G	-i	1c,	-i
=73-	=73-	=73-	=73-	=73-	=73-
1.G	ge-	2r	.	1B-	ge-
.	.	1B-	ge-	.	.
.	.	.	.	1B-	-ni-
4F\	.	4A/	.	.	.
4E\	.	4G/	.	.	.
=74-	=74-	=74-	=74-	=74-	=74-
*	*	*	*	*lig	*
2.D/	.	2.A/	.	1d	.
4E\	.	4G/	.	.	.
!	!	!	!	!LO:SIC:v:custos d	!
4F\	.	4A/	.	1c	.
4G\	.	4B-\	.	.	.
2A\	.	2c\	.	.	.
*	*	*	*	*Xlig	*
!	!	!	!	!LO:LB:g=original	!
=75-	=75-	=75-	=75-	=75-	=75-
2G\	.	2B-\	.	1d	.
4F\	.	4A/	.	.	.
4E\	.	4G/	.	.	.
*	*	*	*	*lig	*
2D/	.	2A\	-ni-	1d	-trix
2G\	.	2B-\	-trix	.	.
=76-	=76-	=76-	=76-	=76-	=76-
1A	ni-	1c	.	1c	.
*	*	*lig	*	*Xlig	*
*	*	*	*	*lig	*
0G	-trix	1B-	.	1d	.
=77-	=77-	=77-	=77-	=77-	=77-
!	!	!	!	!LO:TX:t=P:problem:cezura na 2. linii	!
.	.	1d	.	1B-,	.
*	*	*Xlig	*	*Xlig	*
!	!	!	!	!LO:TX:t=P:problem:cezura na 2. linii	!
1G	quem	2.d\	.	1B-,	quem
!	!	!LO:SIC:v:custos B	!	!	!
.	.	4c\	.	.	.
!	!	!LO:LB:g=original	!	!	!
=78-	=78-	=78-	=78-	=78-	=78-
*lig	*	*	*	*	*
1G	to-	2B-\	.	1B-	to-
.	.	2G/	.	.	.
!LO:SIC:v:custos BB	!	!	!	!	!
1F	.	1A	.	1c	.
*Xlig	*	*	*	*	*
!LO:LB:g=original	!	!	!	!	!
=79-	=79-	=79-	=79-	=79-	=79-
2BB-/	-tus	2F/	.	0B-	.
!LO:SIC:v:s=1E-	!	!	!	!	!
1E	to-	1G	quem	.	.
4D/	.	4F/	.	.	.
4C/	.	4E/	.	.	.
=80-	=80-	=80-	=80-	=80-	=80-
*	*	*	*	*lig	*
1BB-	.	2F/	.	1d	.
.	.	2B-\	.	.	.
!	!	!LO:N:vis=1	!	!	!
2C/	-tus	2G/	.	1c	.
2.F\	to	2.A/	to-	.	.
*	*	*	*	*Xlig	*
=81-	=81-	=81-	=81-	=81-	=81-
.	.	.	.	1A	.
4E\	.	4G/	.	.	.
4D/	.	4F/	tus	.	.
4C/	.	4E/	.	.	.
*lig	*	*	*	*lig	*
1BB-	.	1D	.	1B-	.
=82-	=82-	=82-	=82-	=82-	=82-
1C	.	1E	.	1G	.
*Xlig	*	*	*	*Xlig	*
!LO:TX:t=P:problem:cezura na 1. linii	!	!	!	!LO:TX:t=P:problem:cezura na 1. linii	!
1C,	.	1E	non	1G,	-tus
=83-	=83-	=83-	=83-	=83-	=83-
1BB-	non	2F/	.	1B-	non
.	.	2D/	.	.	.
1D	.	2A/	.	1F	ca-
.	.	2D/	.	.	.
=84-	=84-	=84-	=84-	=84-	=84-
!	!	!LO:SIC:v:custos E	!	!	!
1C	Ca-	1E	.	1G	-pit
!	!	!LO:LB:g=original	!	!	!
*lig	*	*	*	*	*
!	!	!	!	!LO:SIC:v:custos b	!
1C	-pit	2E/	.	1G	or-
.	.	1F/	Ca-	.	.
!	!	!	!	!LO:PB:g=original	!
=85-	=85-	=85-	=85-	=85-	=85-
*	*	*	*	*lig	*
1BB-	.	.	.	1B-	.
.	.	2E/	-pit	.	.
*Xlig	*	*	*	*	*
4C/	ot-	2.G/	Or-	1G	.
4D/	.	.	.	.	.
4E\	.	.	.	.	.
4F\	.	4A/	.	.	.
*	*	*	*	*Xlig	*
=86-	=86-	=86-	=86-	=86-	=86-
!LO:SIC:v:custos D	!	!	!	!	!
1G	.	4B-\	.	1B-	.
.	.	4c\	.	.	.
.	.	1.d	.	.	.
!LO:LB:g=original	!	!	!	!	!
*	*	*	*	*lig	*
1D	-bis	.	.	1A	.
=87-	=87-	=87-	=87-	=87-	=87-
2r	.	2ryy	.	1G	.
1G	Non	2B-\	.	.	.
*	*	*	*	*Xlig	*
.	.	1c	.	1A	.
2F\	.	.	.	.	.
=88-	=88-	=88-	=88-	=88-	=88-
*	*	*	*	*lig	*
1G	ca-	2B-\	.	1B-	.
.	.	1G	.	.	.
2C/	-pit	.	.	1c	.
2.F\	Or-	1.A\	-bis	.	.
*	*	*	*	*Xlig	*
=89-	=89-	=89-	=89-	=89-	=89-
.	.	.	.	1c	.
4G\	.	.	.	.	.
2A\	.	.	.	.	.
*	*	*	*ij	*lig	*
1G	.	1B-	quem	1d	-bis
=90-	=90-	=90-	=90-	=90-	=90-
!LO:TX:t=P:problem:cezura na 1. polu	!	!	!	!LO:TX:t=P:problem:cezura na 2. linii	!
2C,/	-bis	2G/	to-	1c,	.
2F\	in	2A/	.	.	.
*	*	*	*	*Xlig	*
1G	tu-	1B-	-tus	1B-	in
=91-	=91-	=91-	=91-	=91-	=91-
*lig	*	*	*	*	*
1G	-a	1G	non	1B-	tu-
!	!	!LO:SIC:v:custos F	!	!	!
1F	.	1A	.	1c	.
*Xlig	*	*	*	*	*
!	!	!LO:LB:g=original	!	!	!
=92-	=92-	=92-	=92-	=92-	=92-
*	*	*	*	*lig	*
4BB-/	ſe	2.F/	Ca-	1d	.
4C/	.	.	.	.	.
4D/	.	.	.	.	.
4E\	.	4G/	.	.	.
2F\	.	1A	-pit	1c	.
!LO:SIC:v:custos G	!	!	!	!	!
2A\	clau-	.	.	.	.
*	*	*	*	*Xlig	*
!LO:LB:g=original	!	!	!	!	!
=93-	=93-	=93-	=93-	=93-	=93-
*	*	*	*	*lig	*
1G	-sit	1B-	Or-	1d	.
1C	.	1c	-bis	1e	.
*	*	*	*Xij	*Xlig	*
=94-	=94-	=94-	=94-	=94-	=94-
!	!	!	!	!LO:SIC:v:custos d	!
1G	in	1B-	in	1d	-a
!	!	!	!	!LO:LB:g=original	!
!	!	!	!	!LO:TX:t=P:problem:cezura na 3. linii	!
1D	tu-	1A	tu-	1d,	ſe
=95-	=95-	=95-	=95-	=95-	=95-
*lig	*	*	*	*lig	*
1G	-a	1B-	-a	1d	clau-
1A	.	2r	.	1c	.
.	.	2F/	ſe	.	.
*	*	*	*	*Xlig	*
=96-	=96-	=96-	=96-	=96-	=96-
!LO:TX:a:t=2.	!	!	!	!	!
*	*	*	*	*lig	*
0G	.	2.B-\	clau-	1d	.
.	.	4c\	.	.	.
.	.	1d	.	1B-	.
*Xlig	*	*	*	*Xlig	*
=97-	=97-	=97-	=97-	=97-	=97-
*lig	*	*	*	*lig	*
1D	ſe	1d	-ſit	1A	ſit
!	!	!	!	!LO:TX:t=P:problem:cezura na 1. linii	!
1G	.	2.d\	Vi-	1G,	.
.	.	4c\	.	.	.
*Xlig	*	*	*	*Xlig	*
=98-	=98-	=98-	=98-	=98-	=98-
1G	.	2B-\	.	1B-	vi-
!	!	!LO:SIC:v:custos A	!	!	!
.	.	2G/	.	.	.
!	!	!LO:PB:g=original	!	!	!
*	*	*	*	*lig	*
0F	clau-	2A/	sce-	1c	.
.	.	1.c\	ra	.	.
=99-	=99-	=99-	=99-	=99-	=99-
.	.	.	.	1A	.
*	*	*	*ij	*Xlig	*
2BB-/	-sit	1.d	in	1B-	.
1B-\	.	.	.	.	.
=100-	=100-	=100-	=100-	=100-	=100-
*	*	*	*	*lig	*
.	.	.	.	1d	.
2G\	ſe	2B-\	tu-	.	.
2A\	clau-	2c\	-a	1c	.
1F\	.	4A/	ſe	.	.
.	.	4B-\	.	.	.
*	*	*	*	*Xlig	*
=101-	=101-	=101-	=101-	=101-	=101-
*	*	*	*	*lig	*
.	.	2c\	cla-	1A	.
2D/	-sit	2A/	.	.	.
*lig	*	*	*	*	*
1G	Vi-	2G/	.	1B-	.
*	*	*	*	*Xlig	*
.	.	2d\	-ſit	.	.
=102-	=102-	=102-	=102-	=102-	=102-
1C	.	1c	Vi-	1G	.
*Xlig	*	*	*	*	*
*lig	*	*	*	*lig	*
1D	.	1A	.	1F	ſce-
=103-	=103-	=103-	=103-	=103-	=103-
!LO:SIC:v:custos B	!	!	!	!	!
1d	.	2.B-\	.	1G	.
.	.	4c\	-sce-	.	.
*Xlig	*	*	*	*Xlig	*
!LO:LB:g=original	!	!	!	!LO:SIC:v:custos F	!
1B-	.	1d	-ra	1G	-ra
*	*	*	*Xij	*	*
!	!	!	!	!LO:LB:g=original	!
=104-	=104-	=104-	=104-	=104-	=104-
!	!	!LO:SIC:v:custos d	!	!	!
1c	.	1r	.	1F	fa-
!	!	!LO:LB:g=original	!	!	!
*	*	*	*	*lig	*
1B-	-ſce-	2r	.	1G	.
.	.	2.d\	fa-	.	.
=105-	=105-	=105-	=105-	=105-	=105-
1G	-ra	.	.	1B-	.
.	.	4c\	.	.	.
.	.	1B-	.	.	.
*lig	*	*	*	*Xlig	*
*	*	*	*	*lig	*
1G	fac-	.	.	1B-	-ctus
.	.	4A/	.	.	.
.	.	4G/	.	.	.
=106-	=106-	=106-	=106-	=106-	=106-
!	!	!	!	!LO:TX:t=P:problem:cezura na 2. linii	!
1F	.	1A	.	1c,	.
*Xlig	*	*	*	*Xlig	*
*lig	*	*	*	*lig	*
1F	-ctus	1A	.	1c	ho-
=107-	=107-	=107-	=107-	=107-	=107-
1G	.	1d	.	1B-	.
*Xlig	*	*	*	*Xlig	*
*lig	*	*	*	*	*
1A	ho-	2c\	.	1c	.
.	.	2A/	-ctus	.	.
=108-	=108-	=108-	=108-	=108-	=108-
*	*	*	*	*lig	*
1G	.	1B-	ho-	1d	.
*Xlig	*	*	*	*	*
*lig	*	*	*	*	*
1C	.	1G	-mo	1c	.
*	*	*	*	*Xlig	*
=109-	=109-	=109-	=109-	=109-	=109-
*	*	*	*ij	*	*
1G	.	1B-	fa-	1d	.
*Xlig	*	*	*	*	*
!LO:TX:t=P:problem:dwie nuty dopisane inną ręką	!	!	!	!	!
*	*	*	*	*lig	*
1D	.	2A/	.	1d	-mo
.	.	1.d\	.	.	.
=110-	=110-	=110-	=110-	=110-	=110-
1G	.	.	.	1B-	.
*lig	*	*	*	*Xlig	*
*	*	*	*	*lig	*
1G	.	1B-	.	1d	.
=111-	=111-	=111-	=111-	=111-	=111-
1A	.	2c\	.	1c	.
!	!	!LO:SIC:v:custos B	!	!	!
.	.	2A/	.	.	.
*	*	*	*	*Xlig	*
!LO:TX:b:t=2	!	!LO:LB:g=original	!	!	!
0G	.	2.B-\	.	1d	.
.	.	4c\	-ctus	.	.
*Xlig	*	*	*	*	*
=112-	=112-	=112-	=112-	=112-	=112-
.	.	1d	ho-	1B-	.
*	*	*	*	*lig	*
1D	-mo	1d	-mo	1A	.
=113-	=113-	=113-	=113-	=113-	=113-
!	!	!	!	!LO:SIC:v:custos c	!
2r	.	1d	fa-	1G	.
1G	fac-	.	.	.	.
*	*	*	*	*Xlig	*
!	!	!	!	!LO:LB:g=original	!
*	*	*	*	*lig	*
.	.	1A	.	1c	.
2F\	-tus	.	.	.	.
=114-	=114-	=114-	=114-	=114-	=114-
*lig	*	*	*	*	*
1G	ho-	1B-	.	1B-	.
*	*	*	*	*Xlig	*
*	*	*	*	*lig	*
!LO:SIC:v:t=custos D	!	!	!	!	!
1F	.	2c\	.	1A	.
.	.	1c\	-ctus	.	.
*Xlig	*	*	*	*	*
!LO:LB:g=original	!	!	!	!	!
=115-	=115-	=115-	=115-	=115-	=115-
*lig	*	*	*	*	*
1D	.	.	.	1F	.
.	.	2B-\	.	.	.
*	*	*	*	*Xlig	*
*	*	*	*	*lig	*
1C	.	2.c\	ho-	1G	.
.	.	4B-\	.	.	.
*Xlig	*	*	*	*	*
=116-	=116-	=116-	=116-	=116-	=116-
*lig	*	*	*	*	*
1D	.	2A/	.	1F	.
.	.	2B-\	-mo	.	.
*	*	*	*	*Xlig	*
*	*	*	*	*lig	*
1C	.	2c\	fa-	1G	.
.	.	2G/	.	.	.
*Xlig	*	*	*	*	*
=117-	=117-	=117-	=117-	=117-	=117-
1F	-mo	2A/	.	1D	.
.	.	2d\	.	.	.
*	*	*	*	*Xlig	*
*	*ij	*	*	*lig	*
2r	.	1c	.	1F	.
1F\	fa-	.	.	.	.
=118-	=118-	=118-	=118-	=118-	=118-
!	!	!LO:SIC:v:custos A	!	!	!
.	.	1B-	-ctus	1G	.
2E\	-ctus	.	.	.	.
*lig	*	*	*	*Xlig	*
!	!	!LO:LB:g=original	!	!	!
*	*	*	*	*lig	*
1F	ho-	2A/	ho-	1A	.
.	.	2F/	.	.	.
=119-	=119-	=119-	=119-	=119-	=119-
1BB-	.	1F	-mo	1B-	.
*Xlig	*	*	*	*Xlig	*
*lig	*	*	*	*lig	*
1C	.	2r	.	1G	.
.	.	1c\	fa-	.	.
=120-	=120-	=120-	=120-	=120-	=120-
1D	.	.	.	1F	.
.	.	2B-\	.	.	.
*Xlig	*	*	*	*Xlig	*
*lig	*	*	*	*	*
1C	.	1c	.	1G	.
=121-	=121-	=121-	=121-	=121-	=121-
*	*	*	*	*lig	*
1G	.	2B-\	.	1B-	.
.	.	2G/	.	.	.
*Xlig	*	*	*	*	*
1F	.	1A	.	1c	.
*	*	*	*	*Xlig	*
=122-	=122-	=122-	=122-	=122-	=122-
!LO:TX:t=P:problem:skreślona nuta	!	!	!	!	!
0G	.	2.G/	.	0B-	.
.	.	4A/	.	.	.
.	.	2B-\	.	.	.
.	.	2G/	.	.	.
=123-	=123-	=123-	=123-	=123-	=123-
0C	.	1c	.	1G	.
.	.	1.c	.	1ryy	.
=124-	=124-	=124-	=124-	=124-	=124-
*^	*	*	*	*	*
[0Gl;;	[0GGl;;	-mo	.	.	0ryy	.
*	*	*Xij	*	*	*	*
!	!	!	!LO:SIC:v:s=2G	!	!	!
.	.	.	2F/	-ctus	.	.
.	.	.	0c	ho-	.	.
=125-	=125-	=125-	=125-	=125-	=125-	=125-
0.G]	0.GG]	.	.	.	0.ryy	.
!	!	!	!LO:N:acc=#	!	!	!
.	.	.	0Bn;;	-mo	.	.
*	*	*	*	*Xij	*	*
*v	*v	*	*	*	*	*
==	==	==	==	==	==
*-	*-	*-	*-	*-	*-
!!!system-decoration: [s1,s2,s3]
!!!RDF**kern: l = terminal long
!!!ENC: Marta Lawrence
!!!END: 2021-03-20
!!!ENC: Kamil Watkowski
!!!END: 2021-03-07
